X: 1
T: Blue Bells of Scotland
M: 4/4
L: 1/8
K: C
V:R
G2|c4B2A2|G4A2Bc|z8|z4z2G2|
V:L
z2|z8|z8|E2E2E2D2|C6z2|
V:R
|c4B2A2|G4A2Bc|z8|z8|
V:L
|z8|z8|E2E2F2D2|C6G2|
V:R
z8|c4G2Bc|B2G2A2B2|G4A2B2|
V:L
E2C2E2G2|z8|z8|z8|
V:R
c4B2A2|G4A2Bc|z8|z6|]
V:L
z8|z8|E2E2F2D2|C6|]
